X:10
T:Sussex Carol
M:6/4
L:1/4
Z:Kevin Goess 8/16/2004
C:trad.
Q:1/4=200
K:Dmaj
%%MIDI gchord fzcfzc
A | "D" A2 F "G" G2 A | "D" F E D "A" E2 C | "D" D2 D "Em" E F G | "A" F2 E "D" D2 A |
w:On Christ-mas night all Chri-st-ians sing, To hear the news_ the an-gels bring, On
"D" A2 F "G" G2 A | "D" F E D "A" E2 C | "D" D2 D "Em" E F G | "A" F2 E "D" D3 |
w:Christ-mas night all Christ-ians sing, To hear the news_ the an-gels bring, On
"A" E3 "Em" E2 D | E F G "D" A G F | "A" E6 |
w:News of great joy_ news of_ great mirth,
M:9/4
"D" A3 "G" B3 "A" A3 |[M:6/4]"G" G2 F "Em" E D E | "D" D6 |]
w:News of our mer-ci-ful_ King's birth.
W:Then why should men on earth be so sad, 
W:Since our Redeemer made us glad,
W:Then why should men on earth be so sad, 
W:Since our Redeemer made us glad,
W:When from our sin he set us free,
W:All for to gain our liberty?
W:
W:When sin departs before his grace, 
W:Then life and health come in its place,
W:When sin departs before his grace, 
W:Then life and health come in its place;
W:Angels may sing,
W:All for to see the newborn king.
W:
W:All out of darkness we have light
W:Which made the angles sing this night:
W:All out of darkness we have light
W:Which made the angels sing this night:
W:Glory to God and peace to men,
W:Now and for evermore Amen.


